!!!COM: Palestrina, Giovanni Perluigi da
!!!OPR: Missa Hodie Christus Natus Est
!!!OMD: Sanctus
!!!OTL: First Section
**kern	**kern	**kern	**kern	**kern	**kern	**kern	**kern
*Ibass	*Itenor	*Itenor	*Icalto	*Ibass	*Icalto	*Icant	*Icant
!Bassus	!Tenor 2	!Tenor 1	!Altus	!Bassus	!Altus	!Cantus 2	!Cantus 1
*clefF4	*clefGv2	*clefGv2	*clefG2	*clefF4	*clefG2	*clefG2	*clefG2
*k[]	*k[]	*k[]	*k[]	*k[]	*k[]	*k[]	*k[]
*G:mix	*G:mix	*G:mix	*G:mix	*G:mix	*G:mix	*G:mix	*G:mix
*M4/2	*M4/2	*M4/2	*M4/2	*M4/2	*M4/2	*M4/2	*M4/2
=1	=1	=1	=1	=1	=1	=1	=1
0r	0r	0r	0r	0G	1d	0b	1r
.	.	.	.	.	2d	.	1dd
.	.	.	.	.	[2g	.	.
=2	=2	=2	=2	=2	=2	=2	=2
0r	0r	0r	0r	1G	4g]	1b	2dd
.	.	.	.	.	4f	.	.
.	.	.	.	.	4e	.	2.gg
.	.	.	.	.	4d	.	.
.	.	.	.	[1c	2e	[1cc	.
.	.	.	.	.	.	.	4ff
.	.	.	.	.	2c	.	4ee
.	.	.	.	.	.	.	4dd
=3	=3	=3	=3	=3	=3	=3	=3
0r	0r	0r	0r	2c]	1g	2cc]	2ee
.	.	.	.	2G	.	2b	2.dd
.	.	.	.	1A	2e	1a	.
.	.	.	.	.	.	.	4cc
.	.	.	.	.	[2a	.	[2cc
=4	=4	=4	=4	=4	=4	=4	=4
0r	0r	0r	0r	1d	4a]	2.f	2cc]
.	.	.	.	.	4g	.	.
.	.	.	.	.	1f	.	2b
.	.	.	.	.	.	4g	.
.	.	.	.	2.c	.	4a	1cc
.	.	.	.	.	.	4b	.
.	.	.	.	.	2e	[2cc	.
.	.	.	.	8B	.	.	.
.	.	.	.	8A	.	.	.
=5	=5	=5	=5	=5	=5	=5	=5
1r	2r	0r	1r	1G	0g	2cc]	1dd
.	2G	.	.	.	.	2b	.
1C	2G	.	2r	[1c	.	[1cc	[1ee
.	[2c	.	2g	.	.	.	.
=6	=6	=6	=6	=6	=6	=6	=6
1C	4c]	1c	2g	1c]	1e	1cc]	1ee]
.	4B	.	.	.	.	.	.
.	4A	.	2.cc	.	.	.	.
.	4G	.	.	.	.	.	.
[1F	2.A	2c	.	1r	1r	1r	1r
.	.	.	4b	.	.	.	.
.	.	[2f	4a	.	.	.	.
.	4B	.	4g	.	.	.	.
=7	=7	=7	=7	=7	=7	=7	=7
2F]	1c	2f]	2a	0r	0r	0r	0r
2C	.	2e	1g	.	.	.	.
1D	2A	1d	.	.	.	.	.
.	[2d	.	2f	.	.	.	.
=8	=8	=8	=8	=8	=8	=8	=8
1A	4d]	2e	2e	0r	0r	0r	0r
.	4c	.	.	.	.	.	.
.	1c	2f	2c	.	.	.	.
[1G	.	[1g	1d	.	.	.	.
.	4B	.	.	.	.	.	.
.	4A	.	.	.	.	.	.
=9	=9	=9	=9	=9	=9	=9	=9
2G]	2B	2g]	2.e	0r	0r	0r	0r
2A	2c	2e	.	.	.	.	.
.	.	.	4f	.	.	.	.
2B	2d	2d	[1g	.	.	.	.
[2c	2e	2c	.	.	.	.	.
=10	=10	=10	=10	=10	=10	=10	=10
2c]	0d	1.G	0g]	1G	0r	2r	1r
4B	.	.	.	.	.	2dd	.
4A	.	.	.	.	.	.	.
1B	.	.	.	1G	.	2dd	2r
.	.	2d	.	.	.	[2gg	2g
=11	=11	=11	=11	=11	=11	=11	=11
1c	4c	4e	1g	[0c	2r	4gg]	2g
.	4d	4f	.	.	.	4ff	.
.	4e	4g	.	.	2g	4ee	2.cc
.	4f	4f	.	.	.	4dd	.
1C	1g	4e	2r	.	2g	[1ee	.
.	.	4d	.	.	.	.	4dd
.	.	2e	2g	.	[2cc	.	4ee
.	.	.	.	.	.	.	4ff
=12	=12	=12	=12	=12	=12	=12	=12
1C	2r	1c	2g	1c]	4cc]	1ee]	2gg
.	.	.	.	.	4b	.	.
.	1c	.	2a	.	4a	.	1cc
.	.	.	.	.	4g	.	.
1F	.	2r	2.cc	1A	1a	2ff	.
.	2c	2A	.	.	.	2cc	[2ff
.	.	.	4b	.	.	.	.
=13	=13	=13	=13	=13	=13	=13	=13
2.D	1.f	2A	4a	2r	1a	1dd	4ff]
.	.	.	4g	.	.	.	4ee
.	.	1a	2f	1d	.	.	2dd
4E	.	.	.	.	.	.	.
4F	.	.	2a	.	2r	2r	1a
4G	.	.	.	.	.	.	.
2A	2e	2a	2A	2c#	[2a	2ee	.
=14	=14	=14	=14	=14	=14	=14	=14
1D	2r	4f	1a	1d	2a]	2dd	1ff
.	.	4g	.	.	.	.	.
.	2.d	4a	.	.	2a	2a	.
.	.	4f	.	.	.	.	.
1G	.	2.g	2r	1B	2g	2b	1dd
.	4B	.	.	.	.	.	.
.	2B	.	[2g	.	2c	[2dd	.
.	.	4f	.	.	.	.	.
=15	=15	=15	=15	=15	=15	=15	=15
1C	[0G	1e	2g]	1c	1g	4dd]	2.ee
.	.	.	.	.	.	4cc	.
.	.	.	2c	.	.	1cc	.
.	.	.	.	.	.	.	4ff
1G	.	1d	2d	1G	1g	.	2gg
.	.	.	2g	.	.	2b	2dd
=16	=16	=16	=16	=16	=16	=16	=16
1C	1G]	1c	1e	2r	2r	2cc	2ee
.	.	.	.	1c	1g	1ee	1cc
1r	1r	1r	1r	.	.	.	.
.	.	.	.	2G	2g	2dd	2b
=17	=17	=17	=17	=17	=17	=17	=17
0r	0r	0r	0r	1G	1g	1dd	1b
.	.	.	.	1c	2g	1ee	1cc
.	.	.	.	.	2e	.	.
=18	=18	=18	=18	=18	=18	=18	=18
0r	0r	0r	0r	1F	4f	2cc	1a
.	.	.	.	.	4g	.	.
.	.	.	.	.	4a	4f	.
.	.	.	.	.	4b	4g	.
.	.	.	.	2.F	2cc	4a	4f
.	.	.	.	.	.	4b	4g
.	.	.	.	.	2c	4cc	4a
.	.	.	.	4G	.	4b	4b
=19	=19	=19	=19	=19	=19	=19	=19
1r	1r	1r	0r	4A	4c	2a	2.cc
.	.	.	.	4B	4d	.	.
.	.	.	.	1c	4e	2.g	.
.	.	.	.	.	4f	.	4dd
2r	2r	2r	.	.	[1g	.	2ee
.	.	.	.	.	.	4a	.
[2G	[2d	[2g	.	4B	.	4b	2dd
.	.	.	.	4A	.	4cc	.
=20	=20	=20	=20	=20	=20	=20	=20
2G]	2d]	2g]	1.g	2B	0g]	2dd	2.gg
2C	2c	2e	.	2c	.	2ee	.
.	.	.	.	.	.	.	4ff
1C	1c	1e	.	1c	.	1cc	1ee
.	.	.	2c	.	.	.	.
=21	=21	=21	=21	=21	=21	=21	=21
1F	1A	4f	2c	0r	0r	0r	0r
.	.	4g	.	.	.	.	.
.	.	4a	2f	.	.	.	.
.	.	4f	.	.	.	.	.
1C	4c	2g	2e	.	.	.	.
.	4d	.	.	.	.	.	.
.	4e	2g	4c	.	.	.	.
.	4f	.	4d	.	.	.	.
=22	=22	=22	=22	=22	=22	=22	=22
2.C	2g	4c	4e	0r	0r	0r	0r
.	.	4d	4f	.	.	.	.
.	2.G	4e	2g	.	.	.	.
4D	.	4f	.	.	.	.	.
4E	.	[1g	2e	.	.	.	.
4F	4A	.	.	.	.	.	.
4G	4B	.	[2d	.	.	.	.
4A	4c	.	.	.	.	.	.
=23	=23	=23	=23	=23	=23	=23	=23
4B	2d	2g]	4d]	1r	0r	0r	0r
4c	.	.	4e	.	.	.	.
1d	2d	2f	4f	.	.	.	.
.	.	.	4g	.	.	.	.
.	1A	2.e	[1a	[1A	.	.	.
4c#	.	.	.	.	.	.	.
4B	.	4d	.	.	.	.	.
=24	=24	=24	=24	=24	=24	=24	=24
2c#	0r	2e	0a]	2A]	1.a	0r	1r
2d	.	2f#	.	2D	.	.	.
1d	.	1f#	.	1D	.	.	[1dd
.	.	.	.	.	2d	.	.
=25	=25	=25	=25	=25	=25	=25	=25
0r	0r	0r	0r	2.G	2.d	1.dd	2dd]
.	.	.	.	.	.	.	2g
.	.	.	.	4A	4c	.	.
.	.	.	.	4B	2d	.	1g
.	.	.	.	4G	.	.	.
.	.	.	.	[2c	[2e	2g	.
=26	=26	=26	=26	=26	=26	=26	=26
0r	0r	0r	0r	2c]	2e]	1g	2cc
.	.	.	.	2B	2d	.	2dd
.	.	.	.	1A	4c	2.cc	4ee
.	.	.	.	.	4d	.	4ff
.	.	.	.	.	4e	.	[2ee
.	.	.	.	.	4f	4dd	.
=27	=27	=27	=27	=27	=27	=27	=27
0r	0r	0r	0r	1G	4g	4ee	4ee]
.	.	.	.	.	4a	4ff	4dd
.	.	.	.	.	2b	2gg	1dd
.	.	.	.	1A	1a	2ff	.
.	.	.	.	.	.	[2ee	2cc
=28	=28	=28	=28	=28	=28	=28	=28
1r	1r	1r	1r	2.F	0a	4ee]	1ff
.	.	.	.	.	.	4dd	.
.	.	.	.	.	.	1dd	.
.	.	.	.	4G	.	.	.
2r	1e	2r	2r	1A	.	.	1ee
[2A	.	[2e	[2a	.	.	4cc#	.
.	.	.	.	.	.	4b	.
=29	=29	=29	=29	=29	=29	=29	=29
2A]	2A	2e]	2a]	2r	1a	2cc#	1r
2D	2A	2d	2f#	1d	.	2dd	.
2D	1d	2A	2f#	.	2d	4dd	[1dd
.	.	.	.	.	.	4cc	.
[2G	.	2B	[2g	2G	2d	4b	.
.	.	.	.	.	.	4a	.
=30	=30	=30	=30	=30	=30	=30	=30
2G]	1B	1d	2g]	1G	1.g	1.g	2dd]
2G	.	.	2d	.	.	.	2g
2E	2r	2G	[1e	2r	.	.	1g
4C	[2g	2c	.	[2c	4e	2cc	.
4D	.	.	.	.	4f	.	.
=31	=31	=31	=31	=31	=31	=31	=31
4E	2g]	1G	2e]	2c]	4g	2r	2.gg
4F	.	.	.	.	4a	.	.
2G	2g	.	2d	2B	2b	2dd	.
.	.	.	.	.	.	.	4ff
2C	1g	2c	2c	1c	[1g	2ee	4ee
.	.	.	.	.	.	.	4dd
[2c	.	2e	[2g	.	.	2ee	2cc
=32	=32	=32	=32	=32	=32	=32	=32
2c]	2r	1d	4g]	1G	2g]	2.gg	1dd
.	.	.	4a	.	.	.	.
2B	2.g	.	2b	.	2g	.	.
.	.	.	.	.	.	4ff	.
1c	.	1c	1e	2C	1g	4ee	2.ee
.	4g	.	.	.	.	4dd	.
.	2e	.	.	2c	.	[2cc	.
.	.	.	.	.	.	.	4dd
=33	=33	=33	=33	=33	=33	=33	=33
1F	2.f	1c	1a	2A	2r	2cc]	1cc
.	.	.	.	2A	2.g	2a	.
.	4e	.	.	.	.	.	.
1G	2d	1r	2r	2B	.	[1dd	2.b
.	.	.	.	.	4g	.	.
.	2B	.	[2d	2G	[2g	.	.
.	.	.	.	.	.	.	4cc
=34	=34	=34	=34	=34	=34	=34	=34
1D	1A	1d	4d]	1d	2g]	2dd]	1dd
.	.	.	4e	.	.	.	.
.	.	.	4f#	.	4f#	2a	.
.	.	.	4g	.	4e	.	.
1D	1A	1d	2a	1d	2f#	1dd	1a
.	.	.	2d	.	2f#	.	.
=35	=35	=35	=35	=35	=35	=35	=35
0G	0G	0B	0d	0G	0g	0dd	0b
*-	*-	*-	*-	*-	*-	*-	*-
!!!CDT: 1525/^1526/-1594/2/2
!!!OCY: Italia
!!!AGN: Mass (Parody)
!!!AST: renaissance, vocal
!!!ASW: Motet 1575 (Palestrina)
!!!PWK: Masses, Book 8vce
!!!RNB: Cadence finals: C,D
!!!YOR: Le Opere Complete, v. 30, p. 59
!!!YOO: Rome, Italy: Fratelli Scalera
!!!END: 1992//
!!!EED: John Miller
!!!YEC: Copyright 2000, John Miller
!!!YEN: United States of America
!!!YEM: Rights to all derivative electronic formats reserved.
!!!YEM: Refer to licensing agreement for further details.
!!!YEM: This file must be accompanied by the licensing agreement.
!!!YEM: A copy of the licensing agreement may be found at http://www.music-cog.ohio-state.edu/HumdrumDatabases/Palestrina/license.txt
!!!EMD: converted to Humdrum by Bret Aarden
